app/dist/common/images/maanshan-iron-and-steel-ltd.svg

<svg height="18" viewBox="0 0 18 18" width="18" xmlns="http://www.w3.org/2000/svg"><path d="m0 0h18v18h-18z" fill="#f0f3fa"/><path d="m5.67 13h-1.34a.34.34 0 0 1 -.33-.35v-8.65c2 .14 3.94 2.02 4.67 2.77 1.6-1.8 4.33-2.6 5.33-2.77v3c-2.4.28-4 1.33-4 2.2v1.45c0 .2.15.35.33.35h1.34c.18 0 .33-.15.33-.35v-1.15c0-.28-.39-.5-.5-.5h2.5v3.65c0 .2-.15.35-.33.35h-5.34a.34.34 0 0 1 -.33-.35v-3.45c0-.6-1.35-1.09-1.67-1.2-.18-.06-.33.1-.33.3v4.35c0 .2-.15.35-.33.35z" fill="#d71a21"/></svg>

<!-- by TradingView --><svg width="18" height="18" viewBox="0 0 18 18" xmlns="http://www.w3.org/2000/svg"><path fill="#F0F3FA" d="M0 0h18v18H0z"/><path d="M5.67 13H4.33a.34.34 0 0 1-.33-.35V4c2 .14 3.94 2.02 4.67 2.77C10.27 4.97 13 4.17 14 4v3c-2.4.28-4 1.33-4 2.2v1.45c0 .2.15.35.33.35h1.34c.18 0 .33-.15.33-.35V9.5c0-.28-.39-.5-.5-.5H14v3.65c0 .2-.15.35-.33.35H8.33a.34.34 0 0 1-.33-.35V9.2C8 8.6 6.65 8.11 6.33 8c-.18-.06-.33.1-.33.3v4.35c0 .2-.15.35-.33.35Z" fill="#D71A21"/></svg>
